X:3140
T:Lillian
L:1/4
M:3/4
O:Scotland
R:Waltz
Z:Richard Robinson 
%%TUNEURL: http://www.leeds.ac.uk/music/Info/RRTuneBk/gettune/000009df.html
%%ID:000009df
K:G
d2|\
G2 G|B2 d|g3 |d2 g|f2 e|e2 B|(c3 |c2) B|\
A2 A|B2 c|d3 |g2 B|B2 A|A2 B|(A3 |A) BA|\
G2 G|B2 d|g3 |d2 g|f2 e|e2 B|(c3 |c2) B|\
A2 A|B2 c|d2 g|G2 A|B2G|A2 F|(G3 |G2) d|]
\
g2 g|f2 e|d2 B|G2 g|f2 e|e2 B|(c3 |c2) B|\
A2 A|B2 c|d3  |g2 B|B2 A|A2 B|(A3 |A2) d|
g2 g|f2 e|d2 B|G2 g|f2 e|e2 B|(c3 |c2) B|\
A2 A|B2 c|d2 g|G2 A|B2 G|A2 F|(G3 |G2) |]
